X:674
T: DA DRUNTEN IM THALE
N: E2062
O: Europa, Mitteleuropa, Deutschland, Hessen, Taunus, Wuerges
R: geistlich, Marien - Lied, Legende
M: 3/4
L: 1/8
K: E
DF | G2GAGF | FEE2
GA | B2BcBA | A2G2
E2 | Ecc2BA | GBB2
G2 | BAAcBA | G4
E2 | Ecc2BA | GBB2
G2 | BAAcBA | G4

@@@ Tune index: 5358
